X:1
T:6 Gesänge, Op.14
T:Widmung
T:6 Gesänge, Op.14 
T:1. Widmung Dedication
T:Robert Franz
T:Wolfgang Müller von Königswinter
T:OpenScore (CC0)
T:OpenScore (CC0)
T:OpenScore (CC0)
C:Robert Franz
Z:Wolfgang Müller von Königswinter
Z:OpenScore (CC0)
%%score 1 { ( 2 4 6 ) | ( 3 5 7 ) }
L:1/8
Q:1/4=85
M:2/4
K:F
V:1 treble nm="Singstimme\nVoice"
V:2 treble nm="Pianoforte"
V:4 treble 
V:6 treble 
V:3 bass 
V:5 bass 
V:7 bass 
V:1
!mf!"^Andante con moto""^Innig" A2 G F | B3/2 A/ G F | A2 G z | c2 B A |!<(! G G!<)! B3/2!>(! A/ | %5
w: O dan- ke|nicht für die- se|Lie- der,|mir ziemt es|dank- bar Dir zu|
w: Why thankst thou|me for what I|sing thee?|Songs all thine|own, no gift of|
 G2!>)! z2 |!mf! c2 G3/2 G/ | A2- A z |!p! G2 D3/2 D/ |!>(! F2!>)! E C |!mf!!<(! F G A =B!<)! | %11
w: sein;|Du gabst sie|mir, _|ich ge- be|wie- der, was|jetzt und einst und|
w: mine!|Thou gav'st them|me; _|I on- ly|bring thee, What|is and ev- er|
!>(! c2 _B2!>)! | A2 z2 | z4 |!mf! A2 G F | B3/2 A/ G F | A2 G G | (c2 B) A | %18
w: e- wig|Dein.||Dein sind sie|al- le ja ge-|we- sen, aus|Dei- * ner|
w: will be|thine.||Thine are they|all! Yes, thou hast|made them, For|in _ the|
!<(! G G!<)!!>(! B3/2 A/ | G2!>)! z2 |!mf! c2 G3/2 G/ | A2 F z |!p! (F2 E) F |!>(! G2 G!>)! z | %24
w: lie- ben Au- gen|Licht|hab' ich sie|treu- lich|ab- * ge-|le- sen,|
w: light of thy dear|eyes|I have but|tru- ly|learned * to|read them:|
!pp! F2 G A |!<(! (E2!<)!!>(! F) G!>)! | (F2!<(! A) c!<)! |!>(! c2- c!>)! z | %28
w: kennst Du die|eig- * nen|Lie- * der|nicht? *|
w: Know'st not thine|own _ sweet|mel- * o-|dies? *|
!f! c2!<(! F3/2 F/!<)! |!>(! (d2 c) B!>)! |!p![Q:1/4=80] (A2[Q:1/4=70]!p! B) E | %31
w: kennst Du die|eig- * nen|Lie- * der|
w: Know'st not thine|own _ sweet|me- * lo-|
[Q:1/4=60]!pp! F2- F z |] %32
w: nicht? *|
w: dies? *|
V:2
!mf! ([A,CA]2 [G,CG]!<(![F,CF] | [B,CB]>!<)![A,CA]!>(![G,CG][F,CF]!>)! | (([A,C-F]2 [G,CE]))) z | %3
 ([_EGc]2 BA |!<(! [G,G]2!<)! [GB]>!>(!A | G2)!>)! z2 |!mf! (!arpeggio![B,=EGc]2 [B,CG]>[B,CG] | %7
 [A,CA]2- [A,CA]) z | (!arpeggio![F,=B,DG]2 D>D |!>(! ([G,-C-F]2 [G,CE]))!>)! z | %10
!mf! ([CF]!<(![CG][CA][F=B]!<)! | [Ec]2!>(! [_B,CG_B]2 | [A,CFA]2)!>)! z ([=B,FA=B] | %13
!<(! [CEAc]2!<)!!>(! [_B,CG_B]2!>)! |!mf! ([A,CFA]2) [G,CG]!<(![F,CF] | %15
 [B,CB]>!<)!!>(![A,CA][G,CG][F,CF]!>)! | (([A,C-F]2 [G,CE]))) z | (c2 BA | %18
!<(! [G,G]2!<)!!>(! [GB]>A!>)! | G2) z2 |!mf! (!arpeggio![B,=EGc]2 [B,CG]>[B,CG] | %21
 [A,CA]2- [A,CA]) z |!p! (!arpeggio![F,=B,DG]2 D>D |!>(! ([G,-C-F]2 [G,CE]))!>)! z |!pp! (F2 GA | %25
!<(! E2!<)!!>(! FG)!>)! |!<(! (F2- A!<)!c | !arpeggio![EGc]2- [EGc]) z |!f! (c2!<(! c>c | %29
 c!<)!B!>(! AG!>)! |!p! [A,C=F]2!p! [B,=E]2 |!pp! [A,CF]2- [A,CF]) z |] %32
V:3
 ([F,,C,]2 [B,,C,][A,,C,] | [G,,C,]>[F,,C,][E,,C,][D,,C,] | [C,,C,]2- [C,,C,]) z | %3
 ([A,,,A,,]2 [D,,D,][C,,C,] | [B,,,B,,][C,,C,] [D,,D,]2 | [G,,,G,,]2) z2 |!ped! [C,,C,]4!ped-up! | %7
 [F,,,F,,]2- [F,,,F,,] z |!p!!ped! x2 [F,G,]>[F,G,]!ped-up! |!8vb(! [C,,,C,,]2- [C,,,C,,]!8vb)! z | %10
 ([A,,F,][C,E,][F,A,][D,A,] | [E,A,]2!ped! [C,,E,]2!ped-up! | [F,,C,]2) z ([D,,D,] | %13
 [A,,,A,,]2 [C,,E,]2 | ([F,,C,]2) [B,,C,][A,,C,] | [G,,C,]>[F,,C,][E,,C,][D,,C,] | %16
 [C,,C,]2- [C,,C,]) z | ([A,,,A,,]2 [D,,D,][C,,C,] | [B,,,B,,][C,,C,] [D,,D,]2 | [G,,,G,,]2) z2 | %20
!ped! [C,,C,]4!ped-up! | [F,,,F,,]2- [F,,,F,,] z |!ped! x2 [F,G,]>[F,G,]!ped-up! | %23
 [C,,C,]2- [C,,C,] z | (A,2 E,F, | G,2 F,E,) | F,2- A,C |!ped! [G,C]2- [G,C] z!ped-up! | %28
 ([A,,,A,,]2 [A,,,A,,]2 | [B,,,B,,]4 | [C,,C,]2!8vb(! [C,,,C,,]2!8vb)! | %31
 [F,,,F,,]2- [F,,,F,,]) z |] %32
V:4
 x4 | x4 | x4 | x2 [D^F]2 | D[C_E] [B,D]>[C^F] | [B,D]2 x2 | x4 | x4 | x4 | x4 | x4 | x4 | x4 | %13
 x4 | x4 | x4 | x4 | [_EG]2 [D^F]2 | D[C_E] [B,D]>[C^F] | [B,D]2 x2 | x4 | x4 | x4 | x4 | C4 | %25
 _D4 | x2 F2 | x4 | [CF]2 [DF]>[_EF] | F2 ^FG | x4 | x4 |] %32
V:5
 x4 | x4 | x4 | x4 | x4 | x4 | x4 | x4 | [G,,,G,,]4 |!8vb(! x3!8vb)! x | x4 | x4 | x4 | x4 | x4 | %15
 x4 | x4 | x4 | x4 | x4 | x4 | x4 | [G,,,G,,]4 | x4 | A,,4 | B,,4 | x2 F,2 | B,,2- B,, x | x4 | %29
 x4 | x2!8vb(! x2!8vb)! | x4 |] %32
V:6
 x4 | x4 | x4 | x4 | x4 | x4 | x4 | x4 | x4 | x4 | x4 | x4 | x4 | x4 | x4 | x4 | x4 | x4 | x4 | %19
 x4 | x4 | x4 | x4 | x4 | x4 | x4 | C4 | x4 | x4 | D4 | x4 | x4 |] %32
V:7
 x4 | x4 | x4 | x4 | x4 | x4 | x4 | x4 | x4 |!8vb(! x3!8vb)! x | x4 | x4 | x4 | x4 | x4 | x4 | x4 | %17
 x4 | x4 | x4 | x4 | x4 | x4 | x4 | x4 | x4 | A,,4 | x4 | x4 | x4 | x2!8vb(! x2!8vb)! | x4 |] %32

